antibot/app/images/dist/botfaqtor-logo-big.svg

<svg width="213" height="76" viewBox="0 0 213 76" fill="none" xmlns="http://www.w3.org/2000/svg">
<g clip-path="url(#clip0_9526_13333)">
<path d="M88.596 10.498C91.6228 10.498 93.5968 12.2086 94.3864 14.4454C95.3076 16.8138 95.0444 19.577 92.6756 21.2875C95.4392 22.4717 96.3604 24.9717 96.3604 27.2086C96.3604 30.7612 93.9916 34.4454 89.3856 34.4454H78.4629V10.498H88.596ZM82.0161 20.1033H88.4644C92.2808 20.1033 92.2808 13.7875 88.596 13.7875H82.0161V20.1033ZM82.0161 31.1559H89.3856C91.7544 31.1559 92.9388 29.1823 92.9388 27.3402C92.9388 25.498 91.7544 23.5244 89.3856 23.5244H82.0161V31.1559Z" fill="#3D88C8"/>
<path d="M103.204 14.0507C105.309 11.8138 108.336 10.498 111.626 10.498C114.916 10.498 117.943 11.8138 120.049 14.0507C122.154 16.2875 123.47 19.1823 123.47 22.4717C123.47 25.7612 122.154 28.7875 120.049 30.8928C117.811 33.1296 114.916 34.4454 111.626 34.4454C108.336 34.4454 105.309 33.1296 103.204 30.8928C101.098 28.6559 99.7822 25.7612 99.7822 22.4717C99.7822 19.1823 101.098 16.2875 103.204 14.0507ZM117.811 16.4191C116.232 14.8402 114.127 13.9191 111.758 13.9191C109.389 13.9191 107.283 14.8402 105.704 16.4191C104.125 17.998 103.204 20.1033 103.204 22.4717C103.204 24.8402 104.125 26.9454 105.704 28.5244C107.283 30.1033 109.389 31.0244 111.758 31.0244C114.127 31.0244 116.232 30.1033 117.811 28.5244C119.391 26.9454 120.312 24.8402 120.312 22.4717C120.18 20.1033 119.259 17.998 117.811 16.4191Z" fill="#3D88C8"/>
<path d="M134.129 34.577V13.7875H126.891V10.498H144.92V13.7875H137.55V34.577H134.129Z" fill="#3D88C8"/>
<path d="M82.1481 66.6825H78.7266V42.6035H93.0709V46.0246H82.1481V53.2614H91.7549V56.5509H82.1481V66.6825Z" fill="#111111"/>
<path d="M110.573 60.6298H100.835L98.466 66.6825H94.7812L104.388 42.6035H106.888L116.495 66.6825H112.81L110.573 60.6298ZM102.151 57.3404H109.389L105.704 47.8667L102.151 57.3404Z" fill="#111111"/>
<path d="M144.395 66.6817H140.71L138.21 64.4449C132.946 67.866 125.971 67.2081 122.287 63.1291C120.181 60.8923 118.733 57.9975 118.733 54.7081C118.733 51.4186 120.049 48.3923 122.287 46.287C124.392 44.0502 127.419 42.7344 130.709 42.7344C133.999 42.7344 137.026 44.0502 139.131 46.287C141.237 48.5239 142.684 51.4186 142.684 54.7081C142.684 57.4712 141.763 59.9712 140.184 62.0765L144.264 66.0239V66.6817H144.395ZM129.656 56.287H133.736L137.684 59.9712C138.736 58.5239 139.263 56.6817 139.263 54.7081C139.263 52.3396 138.21 50.2344 136.763 48.6554C135.183 47.0765 133.078 46.1554 130.709 46.1554C128.34 46.1554 126.235 47.0765 124.655 48.6554C123.208 50.2344 122.155 52.3396 122.155 54.7081C122.155 57.0765 123.208 59.3133 124.655 60.7607C127.551 63.6554 131.893 64.1817 135.447 62.0765L129.525 56.8133V56.287H129.656ZM129.656 56.8133V56.287V56.8133Z" fill="#111111"/>
<path d="M153.343 66.6825V45.893H146.105V42.6035H164.135V45.893H156.897V66.6825H153.343Z" fill="#111111"/>
<path d="M170.451 46.1561C172.556 43.9193 175.583 42.6035 178.873 42.6035C182.163 42.6035 185.19 43.9193 187.296 46.1561C189.401 48.393 190.717 51.2877 190.717 54.5772C190.717 57.8667 189.401 60.893 187.296 62.9983C185.058 65.2351 182.163 66.5509 178.873 66.5509C175.583 66.5509 172.556 65.2351 170.451 62.9983C168.345 60.7614 167.029 57.8667 167.029 54.5772C167.029 51.4193 168.345 48.393 170.451 46.1561ZM184.927 48.6561C183.348 47.0772 181.242 46.1561 178.873 46.1561C176.504 46.1561 174.399 47.0772 172.82 48.6561C171.24 50.2351 170.319 52.3404 170.319 54.7088C170.319 57.0772 171.24 59.1825 172.82 60.7614C174.399 62.3404 176.504 63.2614 178.873 63.2614C181.242 63.2614 183.348 62.3404 184.927 60.7614C186.506 59.1825 187.427 57.0772 187.427 54.7088C187.427 52.3404 186.506 50.1035 184.927 48.6561Z" fill="#111111"/>
<path d="M199.534 54.4456H203.614C206.509 54.4456 207.957 52.3404 207.957 50.2351C207.957 48.1298 206.509 46.0246 203.614 46.0246H198.218V66.5509H194.797V42.6035H203.614C208.878 42.6035 211.51 46.4193 211.51 50.2351C211.51 53.6561 209.404 56.814 205.325 57.6035L212.958 66.6825H208.483L199.666 56.1561V54.4456H199.534Z" fill="#111111"/>
<path d="M50.2986 46.2891C43.9819 53.9206 37.1387 62.2101 32.6643 66.8154C32.5327 66.8154 32.5327 66.6838 32.4011 66.5522C30.1639 64.5785 27.4003 61.947 24.5052 58.9206L19.7676 63.6575C25.6896 69.8417 31.2167 74.447 32.4011 75.368C32.5327 75.4996 32.6643 75.4996 32.6643 75.4996C32.6643 75.4996 48.0614 58.6575 55.1678 51.0259L50.2986 46.2891Z" fill="#4EB594"/>
<path d="M32.4023 14.1816L12.7939 21.8132C12.7939 21.8132 14.5047 34.8395 18.8475 43.5238C22.6639 51.1553 31.4811 59.8395 32.4023 60.3659C33.3234 59.8395 42.5354 50.629 46.3518 42.9974C50.6946 34.3132 52.0106 21.8132 52.0106 21.8132L32.4023 14.1816Z" fill="#3D88C8"/>
<path d="M63.8546 13.9184L32.4023 0.628906L0.950096 13.9184C0.950096 13.9184 -1.28709 32.2079 8.58286 49.1815C10.5569 52.471 12.9256 55.7605 15.5576 58.7868L20.2952 54.05C18.058 51.4184 15.9524 48.5236 14.3732 45.7605C8.71446 36.2868 7.53007 25.4973 7.39847 19.4447C10.1621 17.8657 30.0336 9.83943 32.4023 8.91838C34.6395 9.83943 54.6426 17.8657 57.4062 19.4447C57.2746 24.3131 56.485 32.2079 53.3267 40.1026L58.459 45.2342C65.8286 29.4447 63.8546 13.9184 63.8546 13.9184Z" fill="#3D88C8"/>
<path d="M55.1694 51.1575L50.3002 46.2891C43.9835 53.9206 37.1403 62.2101 32.6659 66.8154C32.5343 66.8154 32.6659 75.6312 32.6659 75.6312C32.6659 75.6312 47.9314 58.7891 55.1694 51.1575Z" fill="#029E81"/>
<path d="M53.3266 40.1026L58.459 45.2342C65.8286 29.4447 63.8546 13.9184 63.8546 13.9184L32.4023 0.628906V8.91838C34.6395 9.83943 54.6426 17.8657 57.4062 19.4447C57.2746 24.3131 56.485 32.2079 53.3266 40.1026Z" fill="#057BAA"/>
<path d="M52.0107 21.8132C52.0107 21.8132 50.6947 34.3132 46.3519 42.9974C42.5355 50.629 33.3235 59.8395 32.4023 60.3659V14.1816L52.0107 21.8132Z" fill="#057BAA"/>
</g>
<defs>
<clipPath id="clip0_9526_13333">
<rect width="211.875" height="75" fill="white" transform="translate(0.6875 0.5)"/>
</clipPath>
</defs>
</svg>

<svg width="213" height="76" fill="none" xmlns="http://www.w3.org/2000/svg"><g clip-path="url(#a)"><path d="M88.596 10.498c3.027 0 5 1.71 5.79 3.947.922 2.369.658 5.132-1.71 6.843 2.763 1.184 3.684 3.684 3.684 5.92 0 3.553-2.368 7.237-6.974 7.237H78.463V10.498h10.133Zm-6.58 9.605h6.448c3.817 0 3.817-6.316.132-6.316h-6.58v6.316Zm0 11.053h7.37c2.368 0 3.553-1.974 3.553-3.816 0-1.842-1.185-3.816-3.553-3.816h-7.37v7.632Zm21.188-17.106c2.105-2.236 5.132-3.552 8.422-3.552 3.29 0 6.317 1.316 8.423 3.553 2.105 2.237 3.421 5.131 3.421 8.42 0 3.29-1.316 6.317-3.421 8.422-2.238 2.237-5.133 3.552-8.423 3.552s-6.317-1.315-8.422-3.552c-2.106-2.237-3.422-5.132-3.422-8.421 0-3.29 1.316-6.184 3.422-8.421Zm14.607 2.37a8.447 8.447 0 0 0-6.053-2.5 8.45 8.45 0 0 0-6.054 2.5 8.447 8.447 0 0 0-2.5 6.052c0 2.368.921 4.473 2.5 6.052a8.45 8.45 0 0 0 6.054 2.5 8.447 8.447 0 0 0 6.053-2.5 8.444 8.444 0 0 0 2.501-6.052c-.132-2.369-1.053-4.474-2.501-6.053Zm16.318 18.157v-20.79h-7.238v-3.289h18.029v3.29h-7.37v20.789h-3.421Z" fill="#3D88C8"/><path d="M82.148 66.683h-3.421v-24.08H93.07v3.422H82.148v7.236h9.607v3.29h-9.607v10.132Zm28.425-6.053h-9.738l-2.369 6.053h-3.685l9.607-24.08h2.5l9.607 24.08h-3.685l-2.237-6.053Zm-8.422-3.29h7.238l-3.685-9.473-3.553 9.473Zm42.244 9.342h-3.685l-2.5-2.237c-5.264 3.421-12.239 2.763-15.923-1.316-2.106-2.237-3.554-5.131-3.554-8.42 0-3.29 1.316-6.317 3.554-8.422 2.105-2.237 5.132-3.553 8.422-3.553 3.29 0 6.317 1.316 8.422 3.553 2.106 2.237 3.553 5.132 3.553 8.421 0 2.763-.921 5.263-2.5 7.369l4.08 3.947v.658h.131Zm-14.739-10.395h4.08l3.948 3.684c1.052-1.447 1.579-3.29 1.579-5.263 0-2.368-1.053-4.474-2.5-6.053a8.451 8.451 0 0 0-6.054-2.5 8.451 8.451 0 0 0-6.054 2.5c-1.447 1.58-2.5 3.685-2.5 6.053 0 2.369 1.053 4.605 2.5 6.053 2.896 2.894 7.238 3.42 10.792 1.316l-5.922-5.264v-.526h.131Zm0 .526v-.526.526Zm23.687 9.87v-20.79h-7.238v-3.29h18.03v3.29h-7.238v20.79h-3.554Zm17.108-20.527c2.105-2.237 5.132-3.553 8.422-3.553 3.29 0 6.317 1.316 8.423 3.553 2.105 2.237 3.421 5.132 3.421 8.421 0 3.29-1.316 6.316-3.421 8.421-2.238 2.237-5.133 3.553-8.423 3.553s-6.317-1.316-8.422-3.553c-2.106-2.237-3.422-5.131-3.422-8.42 0-3.159 1.316-6.185 3.422-8.422Zm14.476 2.5a8.45 8.45 0 0 0-6.054-2.5 8.447 8.447 0 0 0-6.053 2.5 8.444 8.444 0 0 0-2.501 6.053c0 2.368.921 4.473 2.501 6.052a8.447 8.447 0 0 0 6.053 2.5 8.45 8.45 0 0 0 6.054-2.5 8.447 8.447 0 0 0 2.5-6.052c0-2.369-.921-4.606-2.5-6.053Zm14.607 5.79h4.08c2.895 0 4.343-2.106 4.343-4.21 0-2.106-1.448-4.211-4.343-4.211h-5.396V66.55h-3.421V42.603h8.817c5.264 0 7.896 3.816 7.896 7.632 0 3.421-2.106 6.579-6.185 7.368l7.633 9.08h-4.475l-8.817-10.527v-1.71h-.132Z" fill="#111"/><path d="M50.299 46.29c-6.317 7.63-13.16 15.92-17.635 20.525-.131 0-.131-.131-.263-.263-2.237-1.974-5-4.605-7.896-7.631l-4.737 4.736c5.922 6.185 11.449 10.79 12.633 11.711a.408.408 0 0 0 .263.132s15.397-16.843 22.504-24.474l-4.87-4.737Z" fill="#4EB594"/><path d="m32.402 14.182-19.608 7.631s1.71 13.027 6.053 21.71c3.817 7.632 12.634 16.316 13.555 16.843.921-.526 10.133-9.737 13.95-17.369 4.343-8.684 5.659-21.184 5.659-21.184l-19.609-7.631Z" fill="#3D88C8"/><path d="M63.855 13.918 32.402.628.95 13.919s-2.237 18.29 7.633 35.264a68.485 68.485 0 0 0 6.975 9.605l4.737-4.737c-2.237-2.632-4.343-5.526-5.922-8.29-5.659-9.473-6.843-20.263-6.975-26.315 2.764-1.58 22.636-9.606 25.004-10.527 2.237.921 22.24 8.948 25.004 10.527-.131 4.868-.921 12.763-4.08 20.658l5.133 5.131c7.37-15.79 5.396-31.316 5.396-31.316Z" fill="#3D88C8"/><path d="M55.17 51.157 50.3 46.29c-6.316 7.632-13.16 15.921-17.634 20.526-.132 0 0 8.816 0 8.816S47.93 58.79 55.169 51.157Z" fill="#029E81"/><path d="m53.327 40.103 5.132 5.131c7.37-15.79 5.396-31.316 5.396-31.316L32.402.628v8.29c2.237.921 22.24 8.948 25.004 10.527-.131 4.868-.921 12.763-4.08 20.658Z" fill="#057BAA"/><path d="M52.01 21.813s-1.315 12.5-5.658 21.184c-3.816 7.632-13.028 16.843-13.95 17.369V14.182l19.609 7.631Z" fill="#057BAA"/></g><defs><clipPath id="a"><path fill="#fff" transform="translate(.688 .5)" d="M0 0h211.875v75H0z"/></clipPath></defs></svg>
